src/components/00-materials/images-raw/Farm.svg

<svg width="96" height="96" viewBox="0 0 96 96" fill="none" xmlns="http://www.w3.org/2000/svg">
<path d="M13.96 42.6V79H66.16V42.27M66.16 79H86.41H66.16ZM86.41 74.4H66.16H86.41Z" stroke="#00008F" stroke-width="2" stroke-miterlimit="10"/>
<path d="M86.41 68.26H66.16M20.41 79V57.25H40.06V79H20.41ZM20.41 57.25L40.06 79L20.41 57.25ZM40.06 57.25L59.7 79L40.06 57.25ZM59.7 57.25L40.06 79L59.7 57.25ZM40.06 57.25L20.41 79L40.06 57.25ZM23.73 42.48H31.44V51.79H23.73V42.48ZM36.47 42.45H44.18V51.76H36.47V42.45ZM49 42.45H56.71V51.76H49V42.45ZM43.61 33.56C43.61 34.2645 43.4009 34.9532 43.0093 35.5389C42.6177 36.1245 42.0611 36.5808 41.41 36.85C40.7589 37.1191 40.0426 37.189 39.3518 37.0509C38.6609 36.9127 38.0266 36.5726 37.5291 36.0738C37.0317 35.5749 36.6934 34.9396 36.5572 34.2484C36.4209 33.5572 36.4929 32.841 36.7638 32.1907C37.0348 31.5404 37.4927 30.9851 38.0794 30.5951C38.6662 30.2051 39.3555 29.998 40.06 30C40.527 30 40.9895 30.0922 41.4208 30.2712C41.8522 30.4502 42.244 30.7126 42.5737 31.0433C42.9035 31.374 43.1648 31.7666 43.3426 32.1984C43.5204 32.6303 43.6113 33.093 43.61 33.56V33.56ZM71.21 63.36H76.25V79H71.21V63.36ZM81.37 63.36H86.41V79H81.37V63.36Z" stroke="#00008F" stroke-width="2" stroke-miterlimit="10"/>
<path d="M9.59 40.43C9.58053 40.0318 9.66633 39.6371 9.84028 39.2788C10.0142 38.9204 10.2713 38.6089 10.59 38.37L37.82 17.75C38.4638 17.2641 39.2484 17.0012 40.055 17.0012C40.8616 17.0012 41.6462 17.2641 42.29 17.75L69.5 38.37C69.8181 38.6094 70.0747 38.9211 70.2486 39.2793C70.4225 39.6375 70.5087 40.0319 70.5 40.43C70.4922 40.9056 70.3526 41.3697 70.0967 41.7706C69.8407 42.1716 69.4786 42.4936 69.0505 42.7009C68.6224 42.9082 68.1451 42.9927 67.6719 42.9449C67.1986 42.897 66.748 42.7188 66.37 42.43L40.61 23C40.4502 22.8791 40.2553 22.8137 40.055 22.8137C39.8547 22.8137 39.6598 22.8791 39.5 23L13.72 42.48C13.3387 42.7713 12.8834 42.95 12.4058 42.9958C11.9281 43.0417 11.4472 42.953 11.0173 42.7396C10.5875 42.5263 10.226 42.1969 9.97378 41.7887C9.72152 41.3805 9.58858 40.9098 9.59 40.43V40.43Z" stroke="#00008F" stroke-width="2" stroke-linecap="round" stroke-linejoin="round"/>
</svg>

<svg width="96" height="96" viewBox="0 0 96 96" fill="none" xmlns="http://www.w3.org/2000/svg"><path d="M13.96 42.6V79h52.2V42.27m0 36.73h20.25-20.25zm20.25-4.6H66.16h20.25z" stroke="#00008F" stroke-width="2" stroke-miterlimit="10"/><path d="M86.41 68.26H66.16M20.41 79V57.25h19.65V79H20.41zm0-21.75L40.06 79 20.41 57.25zm19.65 0L59.7 79 40.06 57.25zm19.64 0L40.06 79 59.7 57.25zm-19.64 0L20.41 79l19.65-21.75zM23.73 42.48h7.71v9.31h-7.71v-9.31zm12.74-.03h7.71v9.31h-7.71v-9.31zm12.53 0h7.71v9.31H49v-9.31zm-5.39-8.89A3.56 3.56 0 1140.06 30a3.55 3.55 0 013.55 3.56v0zm27.6 29.8h5.04V79h-5.04V63.36zm10.16 0h5.04V79h-5.04V63.36z" stroke="#00008F" stroke-width="2" stroke-miterlimit="10"/><path d="M9.59 40.43a2.5 2.5 0 011-2.06l27.23-20.62a3.71 3.71 0 014.47 0L69.5 38.37a2.51 2.51 0 011 2.06 2.57 2.57 0 01-4.13 2L40.61 23a.92.92 0 00-1.11 0L13.72 42.48a2.569 2.569 0 01-4.13-2.05v0z" stroke="#00008F" stroke-width="2" stroke-linecap="round" stroke-linejoin="round"/></svg>
